elastic/images/corner-handle.svg

<svg xmlns="http://www.w3.org/2000/svg" xmlns:xlink="http://www.w3.org/1999/xlink" version="1.1" width="512px" height="512px" viewBox="0 0 16 16"><path fill="#888888" d="M6.7 16l9.3-9.3v-1.4l-10.7 10.7z"/><path fill="#888888" d="M9.7 16l6.3-6.3v-1.4l-7.7 7.7z"/><path fill="#888888" d="M12.7 16l3.3-3.3v-1.4l-4.7 4.7z"/><path fill="#888888" d="M15.7 16l0.3-0.3v-1.4l-1.7 1.7z"/></svg>

<svg xmlns="http://www.w3.org/2000/svg" viewBox="0 0 16 16">
  <path fill="#888" d="M6.7 16L16 6.7V5.3L5.3 16zM9.7 16L16 9.7V8.3L8.3 16zM12.7 16l3.3-3.3v-1.4L11.3 16zM15.7 16l.3-.3v-1.4L14.3 16z"/>
</svg>
